svg/set_right.svg

<svg xmlns="http://www.w3.org/2000/svg" viewBox="0 0 24 24"><path d="M15 19c-1.04 0-2.06-.24-3-.68-.94.44-1.96.68-3 .68a7 7 0 0 1-7-7 7 7 0 0 1 7-7c1.04 0 2.06.24 3 .68.94-.44 1.96-.68 3-.68a7 7 0 0 1 7 7 7 7 0 0 1-7 7m-6-2 1-.11c-1.28-1.3-2-3.06-2-4.89s.72-3.59 2-4.9L9 7a5 5 0 0 0-5 5 5 5 0 0 0 5 5m3-1c1.26-.95 2-2.43 2-4s-.74-3.05-2-4c-1.26.95-2 2.43-2 4s.74 3.05 2 4"/></svg>

<?xml version="1.0" encoding="UTF-8"?><!DOCTYPE svg PUBLIC "-//W3C//DTD SVG 1.1//EN" "http://www.w3.org/Graphics/SVG/1.1/DTD/svg11.dtd"><svg xmlns="http://www.w3.org/2000/svg" xmlns:xlink="http://www.w3.org/1999/xlink" version="1.1" id="mdi-set-right" width="24" height="24" viewBox="0 0 24 24"><path d="M15,19C13.96,19 12.94,18.76 12,18.32C11.06,18.76 10.04,19 9,19A7,7 0 0,1 2,12A7,7 0 0,1 9,5C10.04,5 11.06,5.24 12,5.68C12.94,5.24 13.96,5 15,5A7,7 0 0,1 22,12A7,7 0 0,1 15,19M9,17L10,16.89C8.72,15.59 8,13.83 8,12C8,10.17 8.72,8.41 10,7.1L9,7A5,5 0 0,0 4,12A5,5 0 0,0 9,17M12,16C13.26,15.05 14,13.57 14,12C14,10.43 13.26,8.95 12,8C10.74,8.95 10,10.43 10,12C10,13.57 10.74,15.05 12,16Z" /></svg>
